X:1
T:Title
%%score { ( 1 3 ) | 2 }
L:1/8
Q:1/4=100
M:4/4
K:G
V:1 treble nm="Grand Piano"
V:3 treble 
V:2 bass 
V:1
 [DB]2 [B,G]2 [CA]2 [CF]2 | [B,G]>[B,G] [DF]>[CE] [B,D]4 | A2 F2 G2 B2 | A>d d>[G^c] [Fd]4 | %4
w: C.~Austin~Miles * * *||||
 [^DB]>[DB] [DF]>[DF] G>F E2 | [^CA]>[CA] [CE]>[CE] F>E D2 | %6
w: ||
 G>G [B,D]>[B,D] [G,CE][A,CF][B,DG][Ec] |[M:7/8] [DB]2 [CA]2 [B,G]3 | %8
w: ||
[M:6/8] [B,D] [B,D]2 [B,D] [B,E]2 | [B,E] [B,F]2 [B,F] [B,G]2 | z B2- B3 | z =B2- B3 | z c2- c3 | %13
w: |||||
 z c2- c3 | z d2- d3 | z d2- d3 | z e2- e3 | z d2- d B2- | B c2- c3 | z B2- B G2- | G E2- E z z | %21
w: ||||||||
 z G2 z A2- | A G2- G3- | G6 |] %24
w: |||
V:2
 [G,,G,]2 [G,,G,]2 [D,F,]2 [D,A,]2 | [G,,G,]>[G,,G,] [G,,G,]>[G,,G,] [G,,G,]4 | %2
 [D,F,D]2 [D,A,D]2[K:treble] [G,B,D]2 [G,DG]2 | [A,DF]>[A,DF] [A,G]>[K:bass][A,,A,] [D,A,]4 | %4
 [B,,F,]>[B,,F,] [B,,B,]>[B,,B,] [E,B,E]>[E,A,^D] [E,G,B,]2 | %5
 [A,,E,]>[A,,E,] [A,,A,]>[A,,A,] [D,A,C]>[D,G,C] [D,F,C]2 | %6
 [G,B,D]>[G,B,D] [G,,G,]>[G,,G,] C,A,,G,,[C,G,] |[M:7/8] [D,G,]2 [D,F,]2 [G,,G,]3 | %8
[M:6/8] [G,,G,] [G,,G,]2 [G,,G,] [G,,G,]2 | [G,,G,] [G,,G,]2 [G,,G,] [G,,G,]2 | %10
 [G,,G,] [G,,G,]2 [G,,G,] [G,,G,]2 | [G,,G,] [G,,G,]2 [G,,G,] [G,,G,]2 | %12
 [G,,G,] [D,A,D]2 [D,A,] [D,A,]2 | [D,A,D] [D,A,D]2 [D,A,] [D,A,]2 | %14
 [D,A,D] [G,,G,]2 [G,,G,] [G,,G,]2 | [G,,G,] [G,,G,]2 [G,,G,] [G,,G,]2 | %16
 [G,,G,] [C,E,G,C]2 [C,E,G,C] [C,E,G,C]2 | [C,E,G,C] [G,,D,G,]2 [G,,D,G,] [G,,D,G,]2 | %18
 [G,,D,G,] [D,F,A,]2 [D,F,A,] [D,F,A,]2 | [D,F,A,] [G,,D,G,]2 [G,,D,G,] [G,,D,G,]2 | %20
 [G,,D,G,] [C,G,C]2 [C,G,] [A,,A,]2 | [A,,A,] [D,G,D]2 [D,G,] [D,F,A,C]2 | %22
 [D,F,A,] [G,,G,]2 [G,,G,] [C,G,]2 | [C,G,] [G,,G,]2- [G,,G,] z z |] %24
V:3
 x8 | x8 | x8 | x8 | x8 | x8 | x8 |[M:7/8] x7 |[M:6/8] x6 | x6 | [B,A] [DG]2 [DG] [DG]2 | %11
 [DG_B] [DG]2 [DG] [DG]2 | [DGB] F2 [DF] [DF]2 | [FB] F2 [DF] [DF]2 | [F^c] [DGB]2 [DGB] [DGB]2 | %15
 [DGB^c] [DGB]2 [DGB] [DGB]2 | [DGBd] [EGc]2 [EGc] [EGc]2 | [EGc] [DGB]2 [DGB] [DG]2 | %18
 [DG] [FA]2 [FA] [FA]2 | [FA] [DG]2 [DG] [B,D]2 | .[B,D]3 C [CEAc]2 | [CEAc] B2- [DGB] [DF]2 | %22
 [CDF] [B,D]2 [B,D] [CE]2 | [CE] [B,D]2- [B,D] z z |] %24

